lightgbm_on_spark.svg

<svg height="389.67" width="461.17" xmlns="http://www.w3.org/2000/svg" xmlns:xlink="http://www.w3.org/1999/xlink"><clipPath id="a"><path d="m0 0h461v389.5h-461z"/></clipPath><g fill="none" stroke-linecap="round" stroke-linejoin="round" stroke-width="10.72"><path d="m188.02 194.83h85.12m-85.12 1.28-87.21 86.22m-.01-174.83 87.22 87.33" stroke="#00bbf1"/><path d="m103.53 109.57-61.29-.48m61.93-61.74-.16 61.74m.16 173.08.96 61.26m-63.05-60.46 61.77-1.28" stroke="#80ddf8"/><g stroke="#e25a1c"><path d="m103.53 46.55-22.56-22.72m45.76 0-22.88 22.72"/><path clip-path="url(#a)" d="m125.93 24.47.16-16"/><path d="m142.25 24.63h-16.15m-45.13 0-16 .16"/><path clip-path="url(#a)" d="m80.65 8.48.32 16"/><path d="m46.72 109.41-22.72 22.56m0-45.59 22.72 22.87"/><path clip-path="url(#a)" d="m24.64 86.86-16-.16"/><path d="m24.8 70.54-.16 16.16m.16 45.27.16 16"/><path clip-path="url(#a)" d="m8.64 132.13 16-.32"/><path d="m44.16 282.33-22.72 22.55m0-45.58 22.72 22.87"/><path clip-path="url(#a)" d="m22.08 259.77-16-.16"/><path d="m22.24 243.46v16.15m0 45.27.32 16"/><path clip-path="url(#a)" d="m6.08 305.04 16.16-.32"/><path d="m105.93 345.35 22.56 22.72m-45.76 0 22.88-22.72"/><path clip-path="url(#a)" d="m83.2 367.27v16"/><path d="m67.05 367.1 16.16.17m45.12-.17 16-.15"/><path clip-path="url(#a)" d="m128.5 383.42-.17-16.15"/></g><path d="m272.98 193.55 87.21-86.22m.01 174.67-87.22-87.33" stroke="#00bbf1"/><path d="m357.31 279.93 61.29.48m-61.93 61.59.32-61.6m-.32-173.07-.96-61.26m63.05 60.46-61.6 1.12" stroke="#80ddf8"/><path d="m357.47 342.95 22.56 22.72m-45.6 0 22.88-22.72" stroke="#e25a1c"/><path clip-path="url(#a)" d="m334.9 365.03-.15 16" stroke="#e25a1c"/><path d="m318.59 364.87h16.16m45.28-.17 16-.15" stroke="#e25a1c"/><path clip-path="url(#a)" d="m380.2 381.02-.33-16.15" stroke="#e25a1c"/><path d="m414.28 280.09 22.72-22.56m0 45.75-22.72-22.87" stroke="#e25a1c"/><path clip-path="url(#a)" d="m436.2 302.64 16 .16" stroke="#e25a1c"/><path d="m436.04 318.8.16-16.16m-.16-45.11-.16-16" stroke="#e25a1c"/><path clip-path="url(#a)" d="m452.36 257.37-16.16.32" stroke="#e25a1c"/><path d="m416.84 107.17 22.72-22.55m0 45.75-22.72-22.88" stroke="#e25a1c"/><path clip-path="url(#a)" d="m438.76 129.73 16 .16" stroke="#e25a1c"/><path d="m438.6 145.88v-16.15m0-45.11-.16-16" stroke="#e25a1c"/><path clip-path="url(#a)" d="m454.76 84.46-16 .32" stroke="#e25a1c"/><path d="m355.23 44.15-22.56-22.72m45.6 0-22.87 22.72" stroke="#e25a1c"/><path clip-path="url(#a)" d="m377.63 22.07.16-16" stroke="#e25a1c"/><path d="m393.8 22.23h-16m-45.3 0-16 .32" stroke="#e25a1c"/><path clip-path="url(#a)" d="m332.35 6.08.32 16.15" stroke="#e25a1c"/></g></svg>

<svg xmlns="http://www.w3.org/2000/svg" height="389.67" width="461.17" version="1"><defs><clipPath id="a"><path d="M0 0h461v389.5H0z"/></clipPath></defs><path d="M188.02 194.83h85.12M188.02 196.11l-87.21 86.22M100.8 107.5l87.22 87.33" fill="none" stroke="#00bbf1" stroke-width="10.72" stroke-linecap="round" stroke-linejoin="round"/><path d="M103.53 109.57l-61.29-.48M104.17 47.35l-.16 61.74M104.17 282.17l.96 61.26M42.08 282.97l61.77-1.28" fill="none" stroke="#80ddf8" stroke-width="10.72" stroke-linecap="round" stroke-linejoin="round"/><path d="M103.53 46.55L80.97 23.83M126.73 23.83l-22.88 22.72" fill="none" stroke="#e25a1c" stroke-width="10.72" stroke-linecap="round" stroke-linejoin="round"/><path d="M125.93 24.47l.16-16" clip-path="url(#a)" fill="none" stroke="#e25a1c" stroke-width="10.72" stroke-linecap="round" stroke-linejoin="round"/><path d="M142.25 24.63H126.1M80.97 24.63l-16 .16" fill="none" stroke="#e25a1c" stroke-width="10.72" stroke-linecap="round" stroke-linejoin="round"/><path d="M80.65 8.48l.32 16" clip-path="url(#a)" fill="none" stroke="#e25a1c" stroke-width="10.72" stroke-linecap="round" stroke-linejoin="round"/><path d="M46.72 109.41L24 131.97M24 86.38l22.72 22.87" fill="none" stroke="#e25a1c" stroke-width="10.72" stroke-linecap="round" stroke-linejoin="round"/><path d="M24.64 86.86l-16-.16" clip-path="url(#a)" fill="none" stroke="#e25a1c" stroke-width="10.72" stroke-linecap="round" stroke-linejoin="round"/><path d="M24.8 70.54l-.16 16.16M24.8 131.97l.16 16" fill="none" stroke="#e25a1c" stroke-width="10.72" stroke-linecap="round" stroke-linejoin="round"/><path d="M8.64 132.13l16-.32" clip-path="url(#a)" fill="none" stroke="#e25a1c" stroke-width="10.72" stroke-linecap="round" stroke-linejoin="round"/><path d="M44.16 282.33l-22.72 22.55M21.44 259.3l22.72 22.87" fill="none" stroke="#e25a1c" stroke-width="10.72" stroke-linecap="round" stroke-linejoin="round"/><path d="M22.08 259.77l-16-.16" clip-path="url(#a)" fill="none" stroke="#e25a1c" stroke-width="10.72" stroke-linecap="round" stroke-linejoin="round"/><path d="M22.24 243.46v16.15M22.24 304.88l.32 16" fill="none" stroke="#e25a1c" stroke-width="10.72" stroke-linecap="round" stroke-linejoin="round"/><path d="M6.08 305.04l16.16-.32" clip-path="url(#a)" fill="none" stroke="#e25a1c" stroke-width="10.72" stroke-linecap="round" stroke-linejoin="round"/><path d="M105.93 345.35l22.56 22.72M82.73 368.07l22.88-22.72" fill="none" stroke="#e25a1c" stroke-width="10.72" stroke-linecap="round" stroke-linejoin="round"/><path d="M83.2 367.27v16" clip-path="url(#a)" fill="none" stroke="#e25a1c" stroke-width="10.72" stroke-linecap="round" stroke-linejoin="round"/><path d="M67.05 367.1l16.16.17M128.33 367.1l16-.15" fill="none" stroke="#e25a1c" stroke-width="10.72" stroke-linecap="round" stroke-linejoin="round"/><path d="M128.5 383.42l-.17-16.15" clip-path="url(#a)" fill="none" stroke="#e25a1c" stroke-width="10.72" stroke-linecap="round" stroke-linejoin="round"/><path d="M272.98 193.55l87.21-86.22M360.2 282l-87.22-87.33" fill="none" stroke="#00bbf1" stroke-width="10.72" stroke-linecap="round" stroke-linejoin="round"/><path d="M357.31 279.93l61.29.48M356.67 342l.32-61.6M356.67 107.33l-.96-61.26M418.76 106.53l-61.6 1.12" fill="none" stroke="#80ddf8" stroke-width="10.72" stroke-linecap="round" stroke-linejoin="round"/><path d="M357.47 342.95l22.56 22.72M334.43 365.67l22.88-22.72" fill="none" stroke="#e25a1c" stroke-width="10.72" stroke-linecap="round" stroke-linejoin="round"/><path d="M334.9 365.03l-.15 16" clip-path="url(#a)" fill="none" stroke="#e25a1c" stroke-width="10.72" stroke-linecap="round" stroke-linejoin="round"/><path d="M318.59 364.87h16.16M380.03 364.7l16-.15" fill="none" stroke="#e25a1c" stroke-width="10.72" stroke-linecap="round" stroke-linejoin="round"/><path d="M380.2 381.02l-.33-16.15" clip-path="url(#a)" fill="none" stroke="#e25a1c" stroke-width="10.72" stroke-linecap="round" stroke-linejoin="round"/><path d="M414.28 280.09L437 257.53M437 303.28l-22.72-22.87" fill="none" stroke="#e25a1c" stroke-width="10.72" stroke-linecap="round" stroke-linejoin="round"/><path d="M436.2 302.64l16 .16" clip-path="url(#a)" fill="none" stroke="#e25a1c" stroke-width="10.72" stroke-linecap="round" stroke-linejoin="round"/><path d="M436.04 318.8l.16-16.16M436.04 257.53l-.16-16" fill="none" stroke="#e25a1c" stroke-width="10.72" stroke-linecap="round" stroke-linejoin="round"/><path d="M452.36 257.37l-16.16.32" clip-path="url(#a)" fill="none" stroke="#e25a1c" stroke-width="10.72" stroke-linecap="round" stroke-linejoin="round"/><path d="M416.84 107.17l22.72-22.55M439.56 130.37l-22.72-22.88" fill="none" stroke="#e25a1c" stroke-width="10.72" stroke-linecap="round" stroke-linejoin="round"/><path d="M438.76 129.73l16 .16" clip-path="url(#a)" fill="none" stroke="#e25a1c" stroke-width="10.72" stroke-linecap="round" stroke-linejoin="round"/><path d="M438.6 145.88v-16.15M438.6 84.62l-.16-16" fill="none" stroke="#e25a1c" stroke-width="10.72" stroke-linecap="round" stroke-linejoin="round"/><path d="M454.76 84.46l-16 .32" clip-path="url(#a)" fill="none" stroke="#e25a1c" stroke-width="10.72" stroke-linecap="round" stroke-linejoin="round"/><path d="M355.23 44.15l-22.56-22.72M378.27 21.43L355.4 44.15" fill="none" stroke="#e25a1c" stroke-width="10.72" stroke-linecap="round" stroke-linejoin="round"/><path d="M377.63 22.07l.16-16" clip-path="url(#a)" fill="none" stroke="#e25a1c" stroke-width="10.72" stroke-linecap="round" stroke-linejoin="round"/><path d="M393.8 22.23h-16M332.5 22.23l-16 .32" fill="none" stroke="#e25a1c" stroke-width="10.72" stroke-linecap="round" stroke-linejoin="round"/><path d="M332.35 6.08l.32 16.15" clip-path="url(#a)" fill="none" stroke="#e25a1c" stroke-width="10.72" stroke-linecap="round" stroke-linejoin="round"/></svg>
